X: 29139
T: Ness Lassies', The
R: reel
M: 4/4
K: Dmajor
AG|:FAce d2 Dd|BABd geeg|faef defe|dBAB FBBA|
FAce d2 Dd|BABd AFAd|G2 FG Aage|f2 ec AddA:|
|:Adde d2 Ad|defg feef|dBgB A2 FA|B2 ba feeA|
FAce faef|d2 Bd geeg|faef defe|1 dBAB FBBA:|2 dBAB FBB z||

